X: 514
T: Jiefu huan xiaoyi
L: 1/4
M: 2/4
K: A
zf [I:setbarnb 1]| 
ee/ c/ | 
fe/ f/ | 
e2 | 
zf | 
ee/ c/ | 
e/B3/ | 
zd | 
ee/ f/ | 
ee/ c/ | 
B2 | 
zd | 
e3/B// A// | 
B/E3/ |]

@@@ Tune index: 9388
